img/Telegram_2019_Logo.svg

<svg width="40" height="40" viewBox="0 0 40 40" fill="none" xmlns="http://www.w3.org/2000/svg">
<path d="M20 40C31.0457 40 40 31.0457 40 20C40 8.95431 31.0457 0 20 0C8.95431 0 0 8.95431 0 20C0 31.0457 8.95431 40 20 40Z" fill="url(#paint0_linear)"/>
<path fill-rule="evenodd" clip-rule="evenodd" d="M9.05272 19.7889L20.7163 14.7649C26.2706 12.4547 27.4246 12.0534 28.1769 12.0402C28.3424 12.0373 28.7123 12.0783 28.9519 12.2727C29.1543 12.4369 29.2099 12.6587 29.2366 12.8143C29.2632 12.9699 29.2964 13.3246 29.27 13.6017C28.969 16.7641 27.6666 24.4386 27.0041 27.9806C26.7237 29.4794 26.1721 29.9819 25.6373 30.0311C24.4758 30.138 23.5939 29.2635 22.469 28.5261L18.0056 25.528C16.031 24.2268 17.311 23.5116 18.4364 22.3428C18.7309 22.0368 23.8482 17.3823 23.9472 16.96C23.9592 16.9072 23.9711 16.7104 23.8542 16.6064C23.7372 16.5024 23.5646 16.5384 23.44 16.5663C23.2635 16.6064 20.4515 18.465 15.004 22.1423C14.2058 22.6904 13.4828 22.9575 12.835 22.9435C12.1209 22.9281 10.7473 22.5397 9.72612 22.2078C8.4736 21.8007 7.47812 21.5854 7.56484 20.8939C7.60996 20.5338 8.10592 20.1655 9.05268 19.789L9.05272 19.7889Z" fill="white"/>
<defs>
<linearGradient id="paint0_linear" x1="20" y1="0" x2="20" y2="39.7033" gradientUnits="userSpaceOnUse">
<stop stop-color="#2AABEE"/>
<stop offset="1" stop-color="#229ED9"/>
</linearGradient>
</defs>
</svg>

<svg width="40" height="40" fill="none" xmlns="http://www.w3.org/2000/svg"><path d="M20 40c11.046 0 20-8.954 20-20S31.046 0 20 0 0 8.954 0 20s8.954 20 20 20z" fill="url(#paint0_linear)"/><path fill-rule="evenodd" clip-rule="evenodd" d="M9.053 19.789l11.663-5.024c5.555-2.31 6.709-2.712 7.46-2.725.166-.003.536.038.776.233.202.164.258.386.285.541.026.156.06.51.033.788-.301 3.162-1.603 10.837-2.266 14.379-.28 1.498-.832 2-1.367 2.05-1.161.107-2.043-.767-3.168-1.505l-4.463-2.998c-1.975-1.301-.695-2.016.43-3.185.295-.306 5.412-4.96 5.511-5.383.012-.053.024-.25-.093-.354-.117-.104-.29-.068-.414-.04-.177.04-2.989 1.899-8.436 5.576-.798.548-1.521.816-2.169.802-.714-.016-2.088-.404-3.109-.736-1.252-.407-2.248-.623-2.161-1.314.045-.36.54-.728 1.488-1.105z" fill="#fff"/><defs><linearGradient id="paint0_linear" x1="20" y1="0" x2="20" y2="39.703" gradientUnits="userSpaceOnUse"><stop stop-color="#2AABEE"/><stop offset="1" stop-color="#229ED9"/></linearGradient></defs></svg>
